src/assets/Devices/PS5 Front.svg

<svg width="952" height="637" fill="none" xmlns="http://www.w3.org/2000/svg"><path d="M472.244 10.997c-65.328.13-221.554 2.544-361.13 40.61C84.902 99.074 27.569 231.32 7.934 380.547-14.3 549.531 42.997 639.015 92.082 633.271c38.567-4.513 63.611-21.06 91.159-95.774 4.987-13.524 9.103-25.898 12.829-37.095 16.854-50.662 25.694-77.232 70.817-77.232h418.228c45.123 0 53.963 26.57 70.818 77.232 3.725 11.197 7.841 23.571 12.828 37.095 27.548 74.714 52.592 91.261 91.159 95.774 49.085 5.744 106.381-83.74 84.146-252.723-19.634-149.227-76.967-281.473-103.179-328.942-139.576-38.065-295.802-40.479-361.13-40.61v-.006c-1.21 0-2.463 0-3.756.002-1.293-.002-2.546-.002-3.756-.002v.007Z" stroke="#fff" stroke-width="6"/><path d="M211.043 29.963c34.617-4.525 63.714-7.542 70.236 20.613 6.522 28.154 16.054 72.899 22.074 102.059 6.02 29.16-.502 56.812-19.064 78.933-18.562 22.122-60.202 68.878-116.39 184.01m0 0C111.71 530.71 102.178 610.145 99.168 632.77m68.731-217.192 27.09 39.824m-81.272 173.345c3.512-18.602 14.448-64.051 30.101-97.032 11.481-24.191 29.18-54.267 51.171-76.313m52.176-29.769c-19.073 2.701-36.688 14.244-52.176 29.769M739.602 29.958c-34.616-4.518-63.714-7.53-70.236 20.579-6.521 28.108-16.053 72.779-22.074 101.89-6.02 29.112.502 56.718 19.064 78.803 18.563 22.084 60.202 68.764 116.391 183.705m0 0c56.188 114.941 65.72 194.245 68.731 216.832m-68.731-216.832-27.091 39.758m81.273 173.058c-3.512-18.571-14.449-63.945-30.101-96.871-11.481-24.151-29.18-54.178-51.172-76.187m-52.175-29.72c19.072 2.696 36.688 14.22 52.175 29.72" stroke="#fff"/><path d="M123.71 30.546v17.55c34.059-9.527 98.171-20.057 127.722-24.069l-3.506-15.544c-9.015-4.011-34.66-10.53-65.113-4.513-30.453 6.018-52.091 20.225-59.103 26.576Zm703.225 0v17.55c-34.06-9.527-98.171-20.057-127.723-24.069l3.506-15.544c9.016-4.011 34.661-10.53 65.114-4.513 30.453 6.018 52.09 20.225 59.103 26.576Z" stroke="#fff" stroke-width="3"/><path d="M123.71 32.552v15.544c31.254-10.83 98.171-20.055 127.722-24.067l-3.506-15.544c-14.024 3.007-34.66 5.513-65.113 11.53-30.453 6.017-51.089 11.032-59.103 12.537Zm703.225 0v15.544c-31.255-10.83-98.171-20.055-127.723-24.067l3.506-15.544c14.025 3.007 34.661 5.513 65.114 11.53 30.453 6.017 51.089 11.032 59.103 12.537Z" stroke="#fff"/><circle cx="328.5" cy="309.463" r="36" stroke="#fff"/><circle cx="328.5" cy="310.463" r="53" stroke="#fff" stroke-width="3"/><circle cx="328.5" cy="310.463" r="71" stroke="#fff"/><circle cx="621.5" cy="309.463" r="36" stroke="#fff"/><circle cx="621.5" cy="310.463" r="53" stroke="#fff" stroke-width="3"/><circle cx="621.5" cy="310.463" r="71" stroke="#fff"/><path d="m165.887 254.81-1.213.882 1.213-.882c-1.12-1.542-1.741-3.48-2.062-6.437-.323-2.985-.325-6.827-.325-12.11v-11.344c0-3.362.017-4.713.416-5.941.138-.423.308-.835.51-1.232.587-1.15 1.53-2.118 3.907-4.495l12.318-12.318c1.88-1.88 3.206-3.203 4.337-4.112 1.108-.892 1.893-1.271 2.652-1.391.57-.09 1.15-.09 1.72 0 .759.12 1.544.499 2.652 1.391 1.131.909 2.457 2.232 4.337 4.112l12.318 12.318c2.377 2.377 3.32 3.345 3.907 4.495.202.397.372.809.51 1.232.399 1.228.416 2.579.416 5.941v11.344c0 5.283-.002 9.125-.325 12.11-.321 2.957-.942 4.895-2.062 6.437a12.492 12.492 0 0 1-2.766 2.766c-1.541 1.12-3.48 1.741-6.437 2.061-2.985.324-6.827.326-12.11.326h-2.6c-5.283 0-9.125-.002-12.11-.326-2.957-.32-4.896-.941-6.437-2.061a12.492 12.492 0 0 1-2.766-2.766Zm93.71-93.71.882-1.213-.882 1.213a12.471 12.471 0 0 1 2.766 2.766c1.12 1.541 1.741 3.48 2.061 6.437.324 2.985.326 6.827.326 12.11v2.6c0 5.283-.002 9.125-.326 12.11-.32 2.957-.941 4.895-2.061 6.437a12.513 12.513 0 0 1-2.766 2.766c-1.541 1.12-3.48 1.741-6.437 2.061-2.985.324-6.827.326-12.11.326h-11.344c-3.362 0-4.713-.017-5.941-.416a8.484 8.484 0 0 1-1.232-.511c-1.15-.586-2.118-1.529-4.494-3.906l-12.319-12.318c-1.879-1.88-3.203-3.206-4.112-4.337-.892-1.108-1.271-1.893-1.391-2.652-.09-.57-.09-1.15 0-1.721.12-.759.499-1.543 1.391-2.652.909-1.13 2.233-2.456 4.112-4.336l12.319-12.318c2.376-2.377 3.344-3.321 4.494-3.907a8.592 8.592 0 0 1 1.232-.51c1.228-.399 2.579-.416 5.941-.416h11.344c5.283 0 9.125.002 12.11.325 2.957.321 4.896.942 6.437 2.062Zm-106.362 47.197.463 1.426-.463-1.426c-1.228.399-2.579.416-5.941.416H135.95c-5.283 0-9.125-.002-12.11-.326-2.957-.32-4.896-.941-6.437-2.061a12.492 12.492 0 0 1-2.766-2.766c-1.12-1.542-1.741-3.48-2.062-6.437-.323-2.985-.325-6.827-.325-12.11v-2.6c0-5.283.002-9.125.325-12.11.321-2.957.942-4.896 2.062-6.437a12.492 12.492 0 0 1 2.766-2.766c1.541-1.12 3.48-1.741 6.437-2.062 2.985-.323 6.827-.325 12.11-.325h11.344c3.362 0 4.713.017 5.941.416.423.138.835.308 1.232.51 1.15.586 2.118 1.53 4.494 3.907l12.319 12.318c1.879 1.88 3.202 3.206 4.112 4.336.892 1.109 1.271 1.893 1.391 2.653.09.57.09 1.15 0 1.72-.12.759-.499 1.544-1.391 2.652-.909 1.131-2.233 2.457-4.112 4.337l-12.319 12.318c-2.376 2.377-3.344 3.32-4.494 3.906a8.484 8.484 0 0 1-1.232.511Zm10.265-77.134c0-5.283.002-9.125.325-12.11.321-2.957.942-4.896 2.062-6.437a12.492 12.492 0 0 1 2.766-2.766c1.541-1.12 3.48-1.741 6.437-2.062 2.985-.323 6.827-.325 12.11-.325h2.6c5.283 0 9.125.002 12.11.325 2.957.321 4.896.942 6.437 2.062a12.471 12.471 0 0 1 2.766 2.766c1.12 1.541 1.741 3.48 2.062 6.437.323 2.985.325 6.827.325 12.11v11.344c0 3.361-.017 4.713-.416 5.94a8.557 8.557 0 0 1-.51 1.233c-.587 1.15-1.53 2.118-3.907 4.494l-12.318 12.319c-1.88 1.879-3.206 3.202-4.337 4.112-1.108.892-1.893 1.27-2.652 1.391-.57.09-1.15.09-1.72 0-.759-.121-1.544-.499-2.652-1.391-1.131-.91-2.457-2.233-4.337-4.112l-12.318-12.319c-2.377-2.377-3.32-3.344-3.907-4.494a8.557 8.557 0 0 1-.51-1.233c-.399-1.227-.416-2.579-.416-5.94v-11.344Z" stroke="#fff" stroke-width="3"/><path d="m189.5 121.963 6.495 8.25h-12.99l6.495-8.25Zm0 126 6.495-8.25h-12.99l6.495 8.25Zm63-64-8.25 6.495v-12.99l8.25 6.495Zm-126 0 8.25 6.495v-12.99l-8.25 6.495Z" fill="#fff"/><circle cx="188" cy="184.963" r="91.5" stroke="#fff"/><path d="M289.085 42.473c-1.803-8.8 4.517-17.207 13.471-17.923 130.253-10.422 211.538-10.346 345.48.043 8.973.697 15.32 9.115 13.514 17.931l-28.092 137.104c-4.767 23.262-25.237 39.963-48.983 39.963H366.17c-23.746 0-44.216-16.701-48.983-39.963L289.085 42.473Z" stroke="#fff" stroke-width="2"/><path d="M288.342 41.577c-.662-3.222 1.686-6.313 4.974-6.585 140.456-11.637 218.523-11.559 363.025.02 3.284.263 5.642 3.339 4.999 6.559l-27.552 137.913c-4.717 23.61-25.445 40.607-49.522 40.607H366.159c-23.978 0-44.65-16.861-49.47-40.35L288.342 41.577Zm-41.62 32.058c-1.256-6.021 2.606-11.922 8.627-13.18 6.02-1.26 11.918 2.6 13.174 8.622l3.972 19.04c1.256 6.021-2.606 11.922-8.626 13.181-6.021 1.259-11.919-2.602-13.175-8.623l-3.972-19.04Zm458.089 0c1.256-6.021-2.606-11.922-8.626-13.18-6.021-1.26-11.919 2.6-13.175 8.622l-3.972 19.04c-1.256 6.021 2.606 11.922 8.627 13.181 6.02 1.259 11.918-2.602 13.174-8.623l3.972-19.04Zm-252.53 287.357a4.514 4.514 0 0 1 4.515-4.515h38.055a4.514 4.514 0 0 1 0 9.029h-38.055a4.514 4.514 0 0 1-4.515-4.514Z" stroke="#fff"/><path d="M452.281 360.992a4.514 4.514 0 0 1 4.515-4.515h38.055a4.514 4.514 0 0 1 0 9.029h-38.055a4.514 4.514 0 0 1-4.515-4.514Zm7.013 46.633a7.021 7.021 0 0 1 7.021-7.021h20.018a7.021 7.021 0 1 1 0 14.043h-20.018a7.022 7.022 0 0 1-7.021-7.022Z" stroke="#fff"/><circle cx="767" cy="114.963" r="31.5" stroke="#fff" stroke-width="3"/><circle cx="767" cy="250.963" r="31.5" stroke="#fff" stroke-width="3"/><circle cx="835" cy="183.963" r="31.5" transform="rotate(90 835 183.963)" stroke="#fff" stroke-width="3"/><circle cx="699" cy="183.963" r="31.5" transform="rotate(90 699 183.963)" stroke="#fff" stroke-width="3"/><circle cx="767" cy="182.963" r="108.5" stroke="#fff"/><path d="m751.412 123.963 15.588-27 15.588 27h-31.176Zm-66.412 46h27v28h-27z" stroke="#fff" stroke-width="4"/><circle cx="835" cy="183.963" r="18" stroke="#fff" stroke-width="4"/><path stroke="#fff" stroke-width="4" d="m753.414 236.549 29 29m-29.828 0 29-29"/><path d="M513.567 239.025v.001a4.504 4.504 0 0 1 1.826 3.627 4.511 4.511 0 0 1-4.509 4.514 4.511 4.511 0 0 1-4.509-4.514 4.511 4.511 0 0 1 7.192-3.628Zm-66.293 3.628a4.51 4.51 0 0 1-4.508 4.514 4.511 4.511 0 0 1-4.509-4.514 4.511 4.511 0 0 1 4.509-4.514 4.51 4.51 0 0 1 4.508 4.514Zm8.014 15.043a4.51 4.51 0 0 1-4.508 4.514 4.511 4.511 0 0 1-4.509-4.514 4.511 4.511 0 0 1 4.509-4.514 4.51 4.51 0 0 1 4.508 4.514Zm9.016-15.043a4.511 4.511 0 0 1-4.509 4.514 4.511 4.511 0 0 1-4.509-4.514 4.511 4.511 0 0 1 4.509-4.514c2.49 0 4.509 2.02 4.509 4.514Zm8.014 15.043a4.511 4.511 0 0 1-4.509 4.514 4.511 4.511 0 0 1-4.509-4.514 4.511 4.511 0 0 1 4.509-4.514c2.49 0 4.509 2.02 4.509 4.514Zm9.016-15.043a4.511 4.511 0 0 1-4.509 4.514 4.511 4.511 0 0 1-4.509-4.514 4.511 4.511 0 0 1 4.509-4.514c2.49 0 4.509 2.02 4.509 4.514Zm8.014 15.043a4.511 4.511 0 0 1-4.509 4.514 4.511 4.511 0 0 1-4.509-4.514 4.511 4.511 0 0 1 4.509-4.514c2.49 0 4.509 2.02 4.509 4.514Zm9.015-15.043a4.51 4.51 0 0 1-4.508 4.514 4.511 4.511 0 0 1-4.509-4.514 4.511 4.511 0 0 1 4.509-4.514 4.51 4.51 0 0 1 4.508 4.514Zm8.014 15.043a4.511 4.511 0 0 1-4.509 4.514 4.51 4.51 0 0 1-4.508-4.514 4.51 4.51 0 0 1 4.508-4.514c2.49 0 4.509 2.02 4.509 4.514Z" stroke="#fff"/><path stroke="#fff" stroke-width="2" d="M469.812 406.124h13.023"/><path d="M504.097 324.249c-1.149 1.452-3.959 2.487-3.959 2.487l-20.924 7.534v-5.557l15.397-5.501c1.75-.626 2.017-1.514.596-1.979-1.416-.468-3.983-.335-5.733.296l-10.258 3.621v-5.763l.588-.2s2.965-1.054 7.135-1.517c4.167-.46 9.275.065 13.282 1.586 4.514 1.431 5.022 3.538 3.876 4.991v.002Zm-22.893-9.459v-14.206c0-1.669-.305-3.204-1.867-3.637-1.194-.385-1.937.727-1.937 2.394v35.576l-9.574-3.046v-42.417c4.071.756 10.001 2.548 13.188 3.623 8.108 2.79 10.856 6.264 10.856 14.086 0 7.624-4.696 10.515-10.663 7.627h-.003Zm-30.942 13.345c-4.635-1.31-5.407-4.038-3.294-5.608 1.953-1.45 5.273-2.541 5.273-2.541l13.726-4.894v5.579l-9.876 3.543c-1.745.626-2.014 1.514-.596 1.979 1.419.468 3.988.335 5.735-.294l4.737-1.722v4.988l-.943.16c-4.739.776-9.788.452-14.762-1.19Z" fill="#fff"/></svg>

<svg width="952" height="637" viewBox="0 0 952 637" fill="none" xmlns="http://www.w3.org/2000/svg">
<path d="M472.244 10.9971C406.916 11.1276 250.69 13.5413 111.114 51.6065C84.902 99.0757 27.5694 231.321 7.93464 380.548C-14.2996 549.532 42.9964 639.015 92.0812 633.271C130.648 628.758 155.692 612.211 183.24 537.497C188.227 523.973 192.343 511.599 196.069 500.402C212.923 449.74 221.763 423.17 266.886 423.17H685.114C730.237 423.17 739.077 449.74 755.932 500.402C759.657 511.599 763.773 523.973 768.76 537.497C796.308 612.211 821.352 628.758 859.919 633.271C909.004 639.015 966.3 549.532 944.065 380.548C924.431 231.321 867.098 99.0757 840.886 51.6065C701.31 13.5413 545.084 11.1276 479.756 10.9971V10.9902C478.546 10.9902 477.293 10.9906 476 10.9918C474.707 10.9906 473.454 10.9902 472.244 10.9902V10.9971Z" stroke="white" stroke-width="6"/>
<path d="M211.043 29.9628C245.66 25.438 274.757 22.4215 281.279 50.5759C287.801 78.7304 297.333 123.475 303.353 152.635C309.373 181.795 302.851 209.447 284.289 231.569C265.727 253.69 224.087 300.446 167.899 415.578M167.899 415.578C111.71 530.71 102.178 610.146 99.168 632.77M167.899 415.578L194.989 455.402M113.717 628.748C117.229 610.146 128.165 564.696 143.818 531.715C155.299 507.525 172.998 477.448 194.989 455.402M247.165 425.633C228.092 428.334 210.477 439.877 194.989 455.402" stroke="white"/>
<path d="M739.603 29.958C704.987 25.4407 675.889 22.4291 669.367 50.537C662.846 78.6448 653.314 123.316 647.293 152.427C641.273 181.539 647.795 209.145 666.357 231.23C684.92 253.315 726.559 299.994 782.748 414.935M782.748 414.935C838.936 529.876 848.468 609.18 851.479 631.767M782.748 414.935L755.657 454.693M836.93 627.752C833.418 609.18 822.481 563.806 806.829 530.88C795.348 506.729 777.649 476.703 755.657 454.693M703.482 424.973C722.554 427.67 740.17 439.194 755.657 454.693" stroke="white"/>
<path d="M123.711 30.5464V48.0962C157.77 38.5689 221.882 28.0391 251.433 24.0273L247.927 8.48324C238.912 4.47176 213.267 -2.04689 182.814 3.97033C152.361 9.98755 130.723 24.1949 123.711 30.5464Z" stroke="white" stroke-width="3"/>
<path d="M826.936 30.5464V48.0962C792.876 38.5689 728.765 28.0391 699.213 24.0273L702.719 8.48324C711.735 4.47176 737.38 -2.04689 767.833 3.97033C798.286 9.98755 819.923 24.1949 826.936 30.5464Z" stroke="white" stroke-width="3"/>
<path d="M123.711 32.5513V48.0958C154.965 37.2652 221.882 28.0402 251.433 24.0284L247.927 8.48438C233.903 11.491 213.267 13.9974 182.814 20.0146C152.361 26.0318 131.725 31.047 123.711 32.5513Z" stroke="white"/>
<path d="M826.936 32.5513V48.0958C795.681 37.2652 728.765 28.0402 699.213 24.0284L702.719 8.48438C716.744 11.491 737.38 13.9974 767.833 20.0146C798.286 26.0318 818.922 31.047 826.936 32.5513Z" stroke="white"/>
<circle cx="328.5" cy="309.463" r="36" stroke="white"/>
<circle cx="328.5" cy="310.463" r="53" stroke="white" stroke-width="3"/>
<circle cx="328.5" cy="310.463" r="71" stroke="white"/>
<circle cx="621.5" cy="309.463" r="36" stroke="white"/>
<circle cx="621.5" cy="310.463" r="53" stroke="white" stroke-width="3"/>
<circle cx="621.5" cy="310.463" r="71" stroke="white"/>
<path d="M165.887 254.81L164.674 255.692L165.887 254.81C164.767 253.268 164.146 251.33 163.825 248.373C163.502 245.388 163.5 241.546 163.5 236.263V224.919C163.5 221.557 163.517 220.206 163.916 218.978C164.054 218.555 164.224 218.143 164.426 217.746C165.013 216.596 165.956 215.628 168.333 213.251L180.651 200.933C182.531 199.053 183.857 197.73 184.988 196.821C186.096 195.929 186.881 195.55 187.64 195.43C188.21 195.34 188.79 195.34 189.36 195.43C190.119 195.55 190.904 195.929 192.012 196.821C193.143 197.73 194.469 199.053 196.349 200.933L208.667 213.251C211.044 215.628 211.987 216.596 212.574 217.746C212.776 218.143 212.946 218.555 213.084 218.978C213.483 220.206 213.5 221.557 213.5 224.919V236.263C213.5 241.546 213.498 245.388 213.175 248.373C212.854 251.33 212.233 253.268 211.113 254.81C210.342 255.871 209.409 256.805 208.347 257.576C206.806 258.696 204.867 259.317 201.91 259.637C198.925 259.961 195.083 259.963 189.8 259.963H187.2C181.917 259.963 178.075 259.961 175.09 259.637C172.133 259.317 170.194 258.696 168.653 257.576C167.591 256.805 166.658 255.871 165.887 254.81ZM259.597 161.1L260.479 159.887L259.597 161.1C260.659 161.871 261.592 162.804 262.363 163.866C263.483 165.407 264.104 167.346 264.424 170.303C264.748 173.288 264.75 177.13 264.75 182.413V185.013C264.75 190.296 264.748 194.138 264.424 197.123C264.104 200.08 263.483 202.018 262.363 203.56C261.592 204.621 260.658 205.555 259.597 206.326C258.056 207.446 256.117 208.067 253.16 208.387C250.175 208.711 246.333 208.713 241.05 208.713H229.706C226.344 208.713 224.993 208.696 223.765 208.297C223.342 208.159 222.93 207.989 222.533 207.786C221.383 207.2 220.415 206.257 218.039 203.88L205.72 191.562C203.841 189.682 202.517 188.356 201.608 187.225C200.716 186.117 200.337 185.332 200.217 184.573C200.127 184.003 200.127 183.423 200.217 182.852C200.337 182.093 200.716 181.309 201.608 180.2C202.517 179.07 203.841 177.744 205.72 175.864L218.039 163.546C220.415 161.169 221.383 160.225 222.533 159.639C222.93 159.437 223.342 159.267 223.765 159.129C224.993 158.73 226.344 158.713 229.706 158.713H241.05C246.333 158.713 250.175 158.715 253.16 159.038C256.117 159.359 258.056 159.98 259.597 161.1ZM153.235 208.297L153.698 209.723L153.235 208.297C152.007 208.696 150.656 208.713 147.294 208.713H135.95C130.667 208.713 126.825 208.711 123.84 208.387C120.883 208.067 118.944 207.446 117.403 206.326C116.341 205.555 115.408 204.621 114.637 203.56C113.517 202.018 112.896 200.08 112.575 197.123C112.252 194.138 112.25 190.296 112.25 185.013V182.413C112.25 177.13 112.252 173.288 112.575 170.303C112.896 167.346 113.517 165.407 114.637 163.866C115.408 162.804 116.342 161.871 117.403 161.1C118.944 159.98 120.883 159.359 123.84 159.038C126.825 158.715 130.667 158.713 135.95 158.713H147.294C150.656 158.713 152.007 158.73 153.235 159.129C153.658 159.267 154.07 159.437 154.467 159.639C155.617 160.225 156.585 161.169 158.961 163.546L171.28 175.864C173.159 177.744 174.482 179.07 175.392 180.2C176.284 181.309 176.663 182.093 176.783 182.853C176.873 183.423 176.873 184.003 176.783 184.573C176.663 185.332 176.284 186.117 175.392 187.225C174.483 188.356 173.159 189.682 171.28 191.562L158.961 203.88C156.585 206.257 155.617 207.2 154.467 207.786C154.07 207.989 153.658 208.159 153.235 208.297ZM163.5 131.163C163.5 125.88 163.502 122.038 163.825 119.053C164.146 116.096 164.767 114.157 165.887 112.616C166.658 111.554 167.592 110.621 168.653 109.85C170.194 108.73 172.133 108.109 175.09 107.788C178.075 107.465 181.917 107.463 187.2 107.463H189.8C195.083 107.463 198.925 107.465 201.91 107.788C204.867 108.109 206.806 108.73 208.347 109.85C209.409 110.621 210.342 111.554 211.113 112.616C212.233 114.157 212.854 116.096 213.175 119.053C213.498 122.038 213.5 125.88 213.5 131.163V142.507C213.5 145.868 213.483 147.22 213.084 148.447C212.946 148.871 212.776 149.283 212.574 149.68C211.987 150.83 211.044 151.798 208.667 154.174L196.349 166.493C194.469 168.372 193.143 169.695 192.012 170.605C190.904 171.497 190.119 171.875 189.36 171.996C188.79 172.086 188.21 172.086 187.64 171.996C186.881 171.875 186.096 171.497 184.988 170.605C183.857 169.695 182.531 168.372 180.651 166.493L168.333 154.174C165.956 151.797 165.013 150.83 164.426 149.68C164.224 149.283 164.054 148.871 163.916 148.447C163.517 147.22 163.5 145.868 163.5 142.507V131.163Z" stroke="white" stroke-width="3"/>
<path d="M189.5 121.963L195.995 130.213H183.005L189.5 121.963Z" fill="white"/>
<path d="M189.5 247.963L195.995 239.713H183.005L189.5 247.963Z" fill="white"/>
<path d="M252.5 183.963L244.25 190.458L244.25 177.468L252.5 183.963Z" fill="white"/>
<path d="M126.5 183.963L134.75 190.458L134.75 177.468L126.5 183.963Z" fill="white"/>
<circle cx="188" cy="184.963" r="91.5" stroke="white"/>
<path d="M289.085 42.4735C287.282 33.674 293.602 25.2664 302.556 24.55C432.809 14.1286 514.094 14.2039 648.036 24.5937C657.009 25.2898 663.356 33.7082 661.55 42.5244L633.458 179.628C628.691 202.89 608.221 219.592 584.475 219.592H366.17C342.424 219.592 321.954 202.89 317.187 179.628L289.085 42.4735Z" stroke="white" stroke-width="2"/>
<path d="M288.342 41.577C287.68 38.3547 290.028 35.2642 293.316 34.9917C433.772 23.3548 511.839 23.4332 656.341 35.0118C659.625 35.2749 661.983 38.3507 661.34 41.571L633.788 179.484C629.071 203.094 608.343 220.091 584.266 220.091H366.159C342.181 220.091 321.509 203.23 316.689 179.741L288.342 41.577Z" stroke="white"/>
<path d="M246.721 73.6345C245.465 67.6137 249.327 61.7125 255.348 60.4539C261.368 59.1952 267.266 63.0557 268.522 69.0765L272.494 88.117C273.75 94.1378 269.888 100.039 263.868 101.298C257.847 102.556 251.949 98.6958 250.693 92.675L246.721 73.6345Z" stroke="white"/>
<path d="M704.81 73.6345C706.066 67.6137 702.204 61.7125 696.184 60.4539C690.163 59.1952 684.265 63.0557 683.009 69.0765L679.037 88.117C677.781 94.1378 681.643 100.039 687.664 101.298C693.684 102.556 699.582 98.6958 700.838 92.675L704.81 73.6345Z" stroke="white"/>
<path d="M452.281 360.992C452.281 358.499 454.302 356.478 456.796 356.478H494.851C497.344 356.478 499.365 358.499 499.365 360.992C499.365 363.485 497.344 365.506 494.851 365.506H456.796C454.302 365.506 452.281 363.485 452.281 360.992Z" stroke="white"/>
<path d="M452.281 360.992C452.281 358.499 454.302 356.478 456.796 356.478H494.851C497.344 356.478 499.365 358.499 499.365 360.992C499.365 363.485 497.344 365.506 494.851 365.506H456.796C454.302 365.506 452.281 363.485 452.281 360.992Z" stroke="white"/>
<path d="M459.293 407.625C459.293 403.747 462.437 400.604 466.314 400.604H486.332C490.21 400.604 493.354 403.747 493.354 407.625C493.354 411.503 490.21 414.647 486.333 414.647H466.315C462.437 414.647 459.293 411.503 459.293 407.625Z" stroke="white"/>
<circle cx="767" cy="114.963" r="31.5" stroke="white" stroke-width="3"/>
<circle cx="767" cy="250.963" r="31.5" stroke="white" stroke-width="3"/>
<circle cx="835" cy="183.963" r="31.5" transform="rotate(90 835 183.963)" stroke="white" stroke-width="3"/>
<circle cx="699" cy="183.963" r="31.5" transform="rotate(90 699 183.963)" stroke="white" stroke-width="3"/>
<circle cx="767" cy="182.963" r="108.5" stroke="white"/>
<path d="M751.412 123.963L767 96.9629L782.588 123.963H751.412Z" stroke="white" stroke-width="4"/>
<rect x="685" y="169.963" width="27" height="28" stroke="white" stroke-width="4"/>
<circle cx="835" cy="183.963" r="18" stroke="white" stroke-width="4"/>
<line x1="753.414" y1="236.549" x2="782.414" y2="265.549" stroke="white" stroke-width="4"/>
<line x1="752.586" y1="265.549" x2="781.586" y2="236.549" stroke="white" stroke-width="4"/>
<path d="M513.568 239.025L513.568 239.026C514.677 239.848 515.394 241.167 515.394 242.653C515.394 245.147 513.375 247.167 510.885 247.167C508.395 247.167 506.376 245.147 506.376 242.653C506.376 240.159 508.395 238.139 510.885 238.139C511.891 238.139 512.818 238.468 513.568 239.025ZM447.275 242.653C447.275 245.147 445.256 247.167 442.767 247.167C440.277 247.167 438.258 245.147 438.258 242.653C438.258 240.159 440.277 238.139 442.767 238.139C445.256 238.139 447.275 240.159 447.275 242.653ZM455.289 257.696C455.289 260.19 453.27 262.21 450.78 262.21C448.291 262.21 446.272 260.19 446.272 257.696C446.272 255.202 448.291 253.182 450.78 253.182C453.27 253.182 455.289 255.202 455.289 257.696ZM464.305 242.653C464.305 245.147 462.286 247.167 459.796 247.167C457.306 247.167 455.287 245.147 455.287 242.653C455.287 240.159 457.306 238.139 459.796 238.139C462.286 238.139 464.305 240.159 464.305 242.653ZM472.319 257.696C472.319 260.19 470.3 262.21 467.81 262.21C465.32 262.21 463.301 260.19 463.301 257.696C463.301 255.202 465.32 253.182 467.81 253.182C470.3 253.182 472.319 255.202 472.319 257.696ZM481.335 242.653C481.335 245.147 479.316 247.167 476.826 247.167C474.336 247.167 472.317 245.147 472.317 242.653C472.317 240.159 474.336 238.139 476.826 238.139C479.316 238.139 481.335 240.159 481.335 242.653ZM489.349 257.696C489.349 260.19 487.33 262.21 484.84 262.21C482.35 262.21 480.331 260.19 480.331 257.696C480.331 255.202 482.35 253.182 484.84 253.182C487.33 253.182 489.349 255.202 489.349 257.696ZM498.364 242.653C498.364 245.147 496.345 247.167 493.856 247.167C491.366 247.167 489.347 245.147 489.347 242.653C489.347 240.159 491.366 238.139 493.856 238.139C496.345 238.139 498.364 240.159 498.364 242.653ZM506.378 257.696C506.378 260.19 504.359 262.21 501.869 262.21C499.38 262.21 497.361 260.19 497.361 257.696C497.361 255.202 499.38 253.182 501.869 253.182C504.359 253.182 506.378 255.202 506.378 257.696Z" stroke="white"/>
<line x1="469.812" y1="406.124" x2="482.835" y2="406.124" stroke="white" stroke-width="2"/>
<path d="M504.097 324.249C502.948 325.701 500.138 326.736 500.138 326.736L479.214 334.269V328.712L494.611 323.211C496.361 322.585 496.628 321.697 495.207 321.232C493.791 320.764 491.224 320.898 489.474 321.529L479.216 325.15V319.387L479.804 319.186C479.804 319.186 482.769 318.133 486.939 317.67C491.106 317.21 496.214 317.734 500.221 319.256C504.735 320.687 505.243 322.794 504.097 324.246V324.249ZM481.204 314.79V300.584C481.204 298.915 480.899 297.38 479.337 296.947C478.143 296.561 477.4 297.674 477.4 299.34V334.917L467.826 331.871V289.453C471.897 290.21 477.827 292.002 481.014 293.077C489.122 295.866 491.87 299.34 491.87 307.162C491.87 314.787 487.174 317.678 481.207 314.79H481.204ZM450.262 328.135C445.627 326.824 444.855 324.096 446.968 322.526C448.921 321.077 452.241 319.986 452.241 319.986L465.967 315.092V320.67L456.091 324.214C454.346 324.84 454.077 325.728 455.495 326.193C456.914 326.661 459.483 326.527 461.23 325.899L465.967 324.177V329.164L465.024 329.325C460.285 330.1 455.236 329.777 450.262 328.135Z" fill="white"/>
<path fill-rule="evenodd" clip-rule="evenodd" d="M688 40H703V41.7143H688V40ZM688 45.1429H703V46.8571H688V45.1429ZM703 50.2857H688V52H703V50.2857Z" fill="white"/>
<path d="M256.857 39V51H255.143L255.143 39H256.857Z" fill="white"/>
<path d="M265.538 43.2727L261.03 52.1992L259.5 51.4265L264.008 42.5L265.538 43.2727Z" fill="white"/>
<path d="M251.008 52.1992L246.5 43.2727L248.03 42.5L252.538 51.4265L251.008 52.1992Z" fill="white"/>
</svg>
